X:463
T:Mrs Gordon's Favourite
N:"Ancient Irish"
B:Fourth Part of the Complete Repository, 1817
Z:Nigel Gatherer
M:2/4
L:1/8
K:Em
B, | E>D      EF       | B>A  F2      | B2  E/G/F/E/ | D>^C B2 |
     E>D      EF       | B>d ^cB      | B>B B/A/F/E/ | E3     :|
B  | e>e      d/B/d/e/ | f>f g/f/e/d/ | B>A A/B/d/F/ | D3  
B  | e>e      d/B/d/e/ | f>f g/f/e/d/ | B>A A/B/d/f/ | e3
B  | e>e      d/B/d/e/ | f>f g/f/e/d/ | B>A A/B/d/F/ | D3  
B, | e/d/e/f/ BA/F/    | ED  d>A      | B>B B/A/F/E/ | E3     |]
<end>
<start>
